X: 463
T: Srbijanka
O: Serbia
F: http://www.youtube.com/watch?v=1qoHP2H34HM
M: 2/4
L: 1/16
Q: 1/4=132
K: F
%%MIDI program 25
|:ccccccdc |BBBBc2B2|AAFFGGAA |
  ccccccdc |BBBBc2B2|AAFFGGGG :|
|:G2G2cBAG |F2F4GF  |E2C2D2E2 |
  G2G2cBAG |F2F4GF  |E2C2D4   :|
|:G4D4     |D4C2D2  |G4D4     |D4C2D2 :|



